Numix-GalliumOS/64/actions/stock_new-meeting.svg

<?xml version="1.0" encoding="UTF-8" standalone="no"?>
<svg
   xmlns:dc="http://purl.org/dc/elements/1.1/"
   xmlns:cc="http://creativecommons.org/ns#"
   xmlns:rdf="http://www.w3.org/1999/02/22-rdf-syntax-ns#"
   xmlns:svg="http://www.w3.org/2000/svg"
   xmlns="http://www.w3.org/2000/svg"
   xmlns:sodipodi="http://sodipodi.sourceforge.net/DTD/sodipodi-0.dtd"
   xmlns:inkscape="http://www.inkscape.org/namespaces/inkscape"
   width="64"
   height="64"
   viewBox="0 0 64 64"
   id="svg2"
   version="1.1"
   inkscape:version="0.91 r"
   sodipodi:docname="stock_new-meeting.svg">
  <metadata
     id="metadata12">
    <rdf:RDF>
      <cc:Work
         rdf:about="">
        <dc:format>image/svg+xml</dc:format>
        <dc:type
           rdf:resource="http://purl.org/dc/dcmitype/StillImage" />
        <dc:title></dc:title>
      </cc:Work>
    </rdf:RDF>
  </metadata>
  <defs
     id="defs10" />
  <sodipodi:namedview
     pagecolor="#ffffff"
     bordercolor="#666666"
     borderopacity="1"
     objecttolerance="10"
     gridtolerance="10"
     guidetolerance="10"
     inkscape:pageopacity="0"
     inkscape:pageshadow="2"
     inkscape:window-width="1920"
     inkscape:window-height="1056"
     id="namedview8"
     showgrid="true"
     inkscape:zoom="8"
     inkscape:cx="-12.142965"
     inkscape:cy="-0.62712279"
     inkscape:window-x="0"
     inkscape:window-y="24"
     inkscape:window-maximized="1"
     inkscape:current-layer="svg2">
    <inkscape:grid
       type="xygrid"
       id="grid4140" />
  </sodipodi:namedview>
  <path
     style="fill:#6c71c4;fill-opacity:1"
     d="m 10.237235,7.128884 c -2.0414686,7.075244 -2.086378,16.86529 1.547223,21.694368 1.527383,2.294952 3.613754,5.307572 1.981554,8.046896 C 10.746361,41.147454 5.7100594,43.45704 1.1230424,45.786166 0,46.439584 0,46.250002 0,48.398422 0,50 0,50 1.0132404,50 L 44.986722,50 C 46,50 46,50 46,48.398422 c 0,-2.14842 0,-2.013634 -1.123078,-2.612256 -4.586976,-2.329126 -9.623284,-4.638712 -12.642934,-8.916018 -1.6322,-2.739324 0.454172,-5.751944 1.981554,-8.046896 3.838296,-5.253958 4.337372,-16.69437 1.537304,-21.85056 C 33.222222,2.499998 30.666668,0.170892 23,0 15.323368,0.302748 12.777779,2.499998 10.237235,7.128884 Z"
     id="path4-0"
     inkscape:connector-curvature="0"
     sodipodi:nodetypes="cccccccccccccc" />
  <path
     style="fill:#cb4b16;fill-opacity:1"
     d="m 28.237234,21.128884 c -2.041468,7.075246 -2.086376,16.86529 1.547226,21.694368 1.52738,2.29495 3.613754,5.307574 1.981552,8.046896 C 28.74636,55.147454 23.71006,57.45704 19.123042,59.78616 18,60.439582 18,60.250002 18,62.398424 18,64 18,64 19.013241,64 l 43.973481,0 C 64,64 64,64 64,62.398424 64,60.250002 64,60.384786 62.87692,59.78616 58.289946,57.45704 53.25364,55.147454 50.233988,50.870148 48.601786,48.130826 50.68816,45.118202 52.21554,42.823252 56.053836,37.569296 56.552912,26.128884 53.752844,20.972692 51.222222,16.499998 48.666666,14.170892 41,14 33.323366,14.302748 30.777778,16.499998 28.237234,21.128884 Z"
     id="path4"
     inkscape:connector-curvature="0"
     sodipodi:nodetypes="cccccccccccccc" />
  <path
     inkscape:connector-curvature="0"
     style="fill:#859900"
     d="m 64,40 -12,0 0,-12 -12,0 0,12 -12,0 0,12 12,0 0,12 12,0 0,-12 12,0 z"
     id="path4143" />
</svg>

<svg xmlns="http://www.w3.org/2000/svg" viewBox="0 0 64 64">
 <path d="m 10.237 7.129 c -2.041 7.08 -2.086 16.865 1.547 21.694 1.527 2.295 3.614 5.308 1.982 8.05 c -3.02 4.277 -8.06 6.587 -12.643 8.916 -1.123 0.653 -1.123 0.464 -1.123 2.612 0 1.602 0 1.602 1.013 1.602 l 43.973 0 c 1.013 0 1.013 0 1.013 -1.602 c 0 -2.148 0 -2.01 -1.123 -2.612 -4.587 -2.329 -9.623 -4.639 -12.643 -8.916 -1.632 -2.739 0.454 -5.752 1.982 -8.05 3.838 -5.254 4.337 -16.694 1.537 -21.851 c -2.531 -4.473 -5.086 -6.802 -12.753 -6.973 -7.677 0.303 -10.222 2.5 -12.763 7.129" style="fill:#6c71c4;fill-opacity:1"/>
 <path d="m 28.24 21.13 c -2.041 7.08 -2.086 16.865 1.547 21.694 1.527 2.295 3.614 5.308 1.982 8.05 c -3.02 4.277 -8.06 6.587 -12.643 8.916 -1.123 0.653 -1.123 0.464 -1.123 2.612 0 1.602 0 1.602 1.013 1.602 l 43.973 0 c 1.013 0 1.013 0 1.013 -1.602 0 -2.148 0 -2.01 -1.123 -2.612 -4.587 -2.329 -9.623 -4.639 -12.643 -8.916 -1.632 -2.739 0.454 -5.752 1.982 -8.05 3.838 -5.254 4.337 -16.694 1.537 -21.851 -2.531 -4.473 -5.086 -6.802 -12.753 -6.973 -7.677 0.303 -10.222 2.5 -12.763 7.129" style="fill:#cb4b16;fill-opacity:1"/>
 <path d="m 64 40 -12 0 0 -12 -12 0 0 12 -12 0 0 12 12 0 0 12 12 0 0 -12 12 0 z" style="fill:#859900"/>
</svg>
